icons/desktop/12/svg/media-blocked-fill-12.svg

<svg width="12" height="12" viewBox="0 0 12 12" fill="none" xmlns="http://www.w3.org/2000/svg">
<path d="M8.12251 5.3481C8.43544 5.52706 8.53043 5.86927 8.45552 6.17622L6.96724 4.68892L8.12251 5.3481Z" fill="black"/>
<path fill-rule="evenodd" clip-rule="evenodd" d="M6.00044 0.000441074C9.31444 0.000441074 12.0004 2.68644 12.0004 6.00044C12.0004 7.43201 11.4981 8.7455 10.6616 9.77681L11.8178 10.9331C12.0619 11.1771 12.0619 11.5737 11.8178 11.8178C11.5737 12.0619 11.1771 12.0619 10.9331 11.8178L9.77681 10.6616C8.7455 11.4981 7.43201 12.0004 6.00044 12.0004C2.68644 12.0004 0.000441074 9.31444 0.000441074 6.00044C0.000441074 4.56882 0.501732 3.25442 1.33833 2.2231L0.183058 1.06782C-0.0610194 0.823746 -0.0610194 0.427136 0.183058 0.183058C0.427136 -0.0610194 0.823746 -0.0610194 1.06782 0.183058L2.2231 1.33833C3.25442 0.501732 4.56882 0.000441074 6.00044 0.000441074ZM2.23091 3.11568C1.61686 3.91613 1.25044 4.91604 1.25044 6.00044C1.25044 8.61944 3.38144 10.7504 6.00044 10.7504C7.08485 10.7504 8.08476 10.384 8.88521 9.76997L6.62349 7.50825L5.37349 8.22212C4.87358 8.50807 4.25164 8.14755 4.25142 7.57173V5.13618L2.23091 3.11568ZM6.00044 1.25044C4.91604 1.25044 3.91613 1.61686 3.11568 2.23091L9.76997 8.88521C10.384 8.08476 10.7504 7.08485 10.7504 6.00044C10.7504 3.38144 8.61944 1.25044 6.00044 1.25044Z" fill="black"/>
</svg>

<!-- This Source Code Form is subject to the terms of the Mozilla Public
   - License, v. 2.0. If a copy of the MPL was not distributed with this
   - file, You can obtain one at http://mozilla.org/MPL/2.0/. -->
<svg xmlns="http://www.w3.org/2000/svg" width="12" height="12" fill="context-fill" fill-opacity="context-fill-opacity" viewBox="0 0 12 12">
    <path d="M8.123 5.348c.312.18.407.521.333.828L6.967 4.69z" />
    <path fill-rule="evenodd" d="M6 0a6 6 0 0 1 4.662 9.777l1.156 1.156a.626.626 0 0 1-.885.885l-1.156-1.156a6 6 0 0 1-8.438-8.438L.182 1.067a.626.626 0 0 1 .885-.885l1.155 1.155A5.98 5.98 0 0 1 6 0M2.23 3.116c-.613.8-.98 1.8-.98 2.884A4.756 4.756 0 0 0 6 10.75a4.72 4.72 0 0 0 2.885-.98L6.623 7.508l-1.25.714a.75.75 0 0 1-1.122-.65V5.136zM6 1.25a4.72 4.72 0 0 0-2.884.98L9.77 8.886c.614-.8.98-1.8.98-2.885A4.756 4.756 0 0 0 6 1.25" clip-rule="evenodd" />
</svg>
